X:1
Q:1/4=115
L:1/8
M:1/4
K:C clef=F4
V:1
%%MIDI program 48
B,,,/2[B,,,D,,]/2[B,,,D,,]/2z/2|z2|[B,,,D,,]/2B,,,/2B,,,/2z/2|[B,,,D,,]/2B,,,/2B,,,/2z/2|
[B,,,D,,]/2B,,,/2B,,,/2z/2|[B,,,D,,]/2B,,,/2B,,,/2z/2|[B,,,D,,]/2B,,,/2B,,,/2z/2|[B,,,D,,]/2B,,,/2[B,,,D,,]/2z/2|
[B,,,D,,]/2B,,,/2B,,,/2z/2|[B,,,D,,]/2[D,,B,,,]/2[B,,,D,,]/2D,,/2|[B,,,D,,]/2B,,,/2B,,,/2z/2|[B,,,D,,]/2B,,,/2B,,,/2z/2|
[B,,,D,,]/2B,,,/2B,,,/2z/2|[B,,,D,,]/2B,,,/2B,,,/2z/2|[B,,,D,,]/2B,,,/2B,,,/2z/2|[B,,,D,,]/2B,,,/2[B,,,D,,]/2z/2|
[B,,,D,,]/2B,,,/2B,,,/2z/2|[B,,,D,,]/2[D,,B,,,]/2[B,,,D,,]/2D,,/2|[B,,,D,,]/2B,,,/2B,,,/2z/2|[B,,,D,,]/2B,,,/2B,,,/2z/2|
[B,,,D,,]/2B,,,/2B,,,/2z/2|[B,,,D,,]/2B,,,/2B,,,/2z/2|[B,,,D,,]/2B,,,/2B,,,/2z/2|[B,,,D,,]/2B,,,/2[B,,,D,,]/2z/2|
[B,,,D,,]/2B,,,/2B,,,/2z/2|[B,,,D,,]/2[D,,B,,,]/2[B,,,D,,]/2D,,/2|[B,,,D,,B,]/2B,,,/2[B,,,D,,]/2z/2|[D,,B,,,]/2[D,,B,,,]/2[D,,B,,,]/2D,,/2|
[D,,-A,-B,,,]/2[D,,A,B,,,]/2B,,,/2z/2|[B,,,D,,]/2B,,,/2[B,,,D,,]/2z/2|[B,,,D,,]/2B,,,/2B,,,/2z/2|[B,,,D,,]/2B,,,/2B,,,/2z/2|
[B,,,D,,]/2B,,,/2B,,,/2z/2|[B,,,D,,]/2B,,,/2B,,,/2z/2|[B,,,D,,B,]/2B,,,/2[B,,,D,,]/2z/2|[D,,B,,,]/2[D,,B,,,]/2[D,,B,,,]/2D,,/2|
[D,,-A,-B,,,]/2[D,,A,B,,,]/2B,,,/2z/2|[B,,,D,,]/2B,,,/2[B,,,D,,]/2z/2|[B,,,D,,]/2B,,,/2B,,,/2z/2|[B,,,D,,]/2B,,,/2B,,,/2z/2|
[B,,,D,,]/2B,,,/2B,,,/2z/2|[B,,,D,,]/2[B,,,D,,]/2[B,,,D,,]/2D,,/2|D,,/2z/2D,,/2z/2|D,,/2z/2D,,/2z/2|
D,,/2z/2D,,/2z/2|D,,/2z/2D,,/2z/2|[B,-B,,,]/2[B,B,,,]/2B,,,/2z/2|[G,-B,,,]/2[G,B,,,]/2B,,,/2z/2|
[B,-B,,,]/2[B,B,,,]/2B,,,/2z/2|[G,-B,,,]/2[G,B,,,]/2B,,,/2z/2|D,,/2z/2D,,/2z/2|D,,/2z/2D,,/2z/2|
D,,/2z/2D,,/2z/2|D,,/2z/2D,,/2z/2|[B,-B,,,]/2[B,B,,,]/2B,,,/2z/2|[G,-B,,,]/2[G,B,,,]/2B,,,/2z/2|
[B,-B,,,]/2[B,B,,,]/2B,,,/2z/2|[G,-B,,,]/2[G,B,,,]/2B,,,/2z/2|[B,,,D,,]/2B,,,/2B,,,/2z/2|[B,,,D,,]/2B,,,/2B,,,/2z/2|
[B,,,D,,]/2B,,,/2B,,,/2z/2|[B,,,D,,]/2B,,,/2B,,,/2z/2|[B,,,D,,]/2B,,,/2B,,,/2z/2|[B,,,D,,]/2B,,,/2[B,,,D,,]/2z/2|
[B,,,D,,]/2B,,,/2B,,,/2z/2|[B,,,D,,]/2[D,,B,,,]/2[B,,,D,,]/2D,,/2|[B,,,D,,]/2B,,,/2B,,,/2z/2|[B,,,D,,]/2B,,,/2B,,,/2z/2|
[B,,,D,,]/2B,,,/2B,,,/2z/2|[B,,,D,,]/2B,,,/2B,,,/2z/2|[B,,,D,,B,]/2B,,,/2[B,,,D,,]/2z/2|[D,,B,,,]/2[D,,B,,,]/2[D,,B,,,]/2D,,/2|
[D,,-A,-B,,,]/2[D,,A,B,,,]/2B,,,/2z/2|[B,,,D,,]/2B,,,/2[B,,,D,,]/2z/2|[B,,,D,,]/2B,,,/2B,,,/2z/2|[B,,,D,,]/2B,,,/2B,,,/2z/2|
[B,,,D,,]/2B,,,/2B,,,/2z/2|[B,,,D,,]/2B,,,/2B,,,/2z/2|[B,,,D,,B,]/2B,,,/2[B,,,D,,]/2z/2|[D,,B,,,]/2[D,,B,,,]/2[D,,B,,,]/2D,,/2|
[D,,-A,-B,,,]/2[D,,A,B,,,]/2B,,,/2z/2|[B,,,D,,]/2B,,,/2[B,,,D,,]/2z/2|[B,,,D,,]/2B,,,/2B,,,/2z/2|[B,,,D,,]/2B,,,/2B,,,/2z/2|
[B,,,D,,]/2B,,,/2B,,,/2z/2|[B,,,D,,]/2[B,,,D,,]/2[B,,,D,,]/2D,,/2|B,,,/2B,,,/2B,,,/2B,,,/2|[B,,,D,,B,,,]/2z/2D,,/2z/2|
B,,,/2B,,,/2B,,,/2z/2|D,,/2z/2D,,/2z/2|B,,,/2B,,,/2B,,,/2B,,,/2|[B,,,D,,]/2z/2B,,,/2B,,,/2|
[B,,,D,,]/2B,,,/2B,,,/2z/2|D,,/2D,,/2D,,/2D,,/2|B,,,/2B,,,/2B,,,/2B,,,/2|[B,,,D,,B,,,]/2z/2D,,/2z/2|
B,,,/2B,,,/2B,,,/2z/2|D,,/2z/2D,,/2z/2|B,,,/2B,,,/2B,,,/2B,,,/2|[B,,,D,,]/2z/2B,,,/2B,,,/2|
[B,,,D,,]/2B,,,/2B,,,/2z/2|D,,/2D,,/2D,,/2D,,/2|[B,,,D,,]/2B,,,/2B,,,/2z/2|[B,,,D,,]/2B,,,/2B,,,/2z/2|
[B,,,D,,]/2B,,,/2B,,,/2z/2|[B,,,D,,]/2B,,,/2B,,,/2z/2|[B,,,D,,]/2B,,,/2B,,,/2z/2|[B,,,D,,]/2B,,,/2[B,,,D,,]/2z/2|
[B,,,D,,]/2B,,,/2B,,,/2z/2|[B,,,D,,]/2[D,,B,,,]/2[B,,,D,,]/2D,,/2|[B,,,D,,]/2B,,,/2B,,,/2z/2|[B,,,D,,]/2B,,,/2B,,,/2z/2|
[B,,,D,,]/2B,,,/2B,,,/2z/2|[B,,,D,,]/2B,,,/2B,,,/2z/2|[B,,,D,,]/2B,,,/2B,,,/2z/2|[B,,,D,,]/2B,,,/2[B,,,D,,]/2z/2|
[B,,,D,,]/2B,,,/2B,,,/2z/2|[B,,,D,,]/2[D,,B,,,]/2[B,,,D,,]/2D,,/2|[B,,,D,,]/2B,,,/2B,,,/2z/2|[B,,,D,,]/2B,,,/2B,,,/2z/2|
[B,,,D,,]/2B,,,/2B,,,/2z/2|[B,,,D,,]/2B,,,/2B,,,/2z/2|[B,,,D,,]/2B,,,/2B,,,/2z/2|[B,,,D,,]/2B,,,/2[B,,,D,,]/2z/2|
[B,,,D,,]/2B,,,/2B,,,/2z/2|[B,,,D,,]/2[D,,B,,,]/2[B,,,D,,]/2D,,/2|[B,,,D,,B,]/2B,,,/2[B,,,D,,]/2z/2|[D,,B,,,]/2[D,,B,,,]/2[D,,B,,,]/2D,,/2|
[D,,-A,-B,,,]/2[D,,A,B,,,]/2B,,,/2z/2|[B,,,D,,]/2B,,,/2[B,,,D,,]/2z/2|[B,,,D,,]/2B,,,/2B,,,/2z/2|[B,,,D,,]/2B,,,/2B,,,/2z/2|
[B,,,D,,]/2B,,,/2B,,,/2z/2|[B,,,D,,]/2B,,,/2B,,,/2z/2|[B,,,D,,B,]/2B,,,/2[B,,,D,,]/2z/2|[D,,B,,,]/2[D,,B,,,]/2[D,,B,,,]/2D,,/2|
[D,,-A,-B,,,]/2[D,,A,B,,,]/2B,,,/2z/2|[B,,,D,,]/2B,,,/2[B,,,D,,]/2z/2|[B,,,D,,]/2B,,,/2B,,,/2z/2|[B,,,D,,]/2B,,,/2B,,,/2z/2|
[B,,,D,,]/2B,,,/2B,,,/2z/2|[B,,,D,,]/2[B,,,D,,]/2[B,,,D,,]/2D,,/2|D,,/2z/2D,,/2z/2|D,,/2z/2D,,/2z/2|
D,,/2z/2D,,/2z/2|D,,/2z/2D,,/2z/2|[B,-B,,,]/2[B,B,,,]/2B,,,/2z/2|[G,-B,,,]/2[G,B,,,]/2B,,,/2z/2|
[B,-B,,,]/2[B,B,,,]/2B,,,/2z/2|[G,-B,,,]/2[G,B,,,]/2B,,,/2z/2|D,,/2z/2D,,/2z/2|D,,/2z/2D,,/2z/2|
D,,/2z/2D,,/2z/2|D,,/2z/2D,,/2z/2|[B,-B,,,]/2[B,B,,,]/2B,,,/2z/2|[G,-B,,,]/2[G,B,,,]/2B,,,/2z/2|
[B,-B,,,]/2[B,B,,,]/2B,,,/2z/2|[G,-B,,,]/2[G,B,,,]/2B,,,/2z/2|[B,,,D,,]/2B,,,/2B,,,/2z/2|[B,,,D,,]/2B,,,/2B,,,/2z/2|
[B,,,D,,]/2B,,,/2B,,,/2z/2|[B,,,D,,]/2B,,,/2B,,,/2z/2|[B,,,D,,]/2B,,,/2B,,,/2z/2|[B,,,D,,]/2B,,,/2[B,,,D,,]/2z/2|
[B,,,D,,]/2B,,,/2B,,,/2z/2|[B,,,D,,]/2[D,,B,,,]/2[B,,,D,,]/2D,,/2|[B,,,D,,]/2B,,,/2B,,,/2z/2|[B,,,D,,]/2B,,,/2B,,,/2z/2|
[B,,,D,,]/2B,,,/2B,,,/2z/2|[B,,,D,,]/2B,,,/2B,,,/2z/2|[B,,,D,,B,]/2B,,,/2[B,,,D,,]/2z/2|[D,,B,,,]/2[D,,B,,,]/2[D,,B,,,]/2D,,/2|
[D,,-A,-B,,,]/2[D,,A,B,,,]/2B,,,/2z/2|[B,,,D,,]/2B,,,/2[B,,,D,,]/2z/2|[B,,,D,,]/2B,,,/2B,,,/2z/2|[B,,,D,,]/2B,,,/2B,,,/2z/2|
[B,,,D,,]/2B,,,/2B,,,/2z/2|[B,,,D,,]/2B,,,/2B,,,/2z/2|[B,,,D,,B,]/2B,,,/2[B,,,D,,]/2z/2|[D,,B,,,]/2[D,,B,,,]/2[D,,B,,,]/2D,,/2|
[D,,-A,-B,,,]/2[D,,A,B,,,]/2B,,,/2z/2|[B,,,D,,]/2B,,,/2[B,,,D,,]/2z/2|[B,,,D,,]/2B,,,/2B,,,/2z/2|[B,,,D,,]/2B,,,/2B,,,/2z/2|
[B,,,D,,]/2B,,,/2B,,,/2z/2|[B,,,D,,]/2[B,,,D,,]/2[B,,,D,,]/2D,,/2|B,,,/2B,,,/2B,,,/2B,,,/2|[B,,,D,,B,,,]/2z/2D,,/2z/2|
B,,,/2B,,,/2B,,,/2z/2|D,,/2z/2D,,/2z/2|B,,,/2B,,,/2B,,,/2B,,,/2|[B,,,D,,]/2z/2B,,,/2B,,,/2|
[B,,,D,,]/2B,,,/2B,,,/2z/2|D,,/2D,,/2D,,/2D,,/2|B,,,/2B,,,/2B,,,/2B,,,/2|[B,,,D,,B,,,]/2z/2D,,/2z/2|
B,,,/2B,,,/2B,,,/2z/2|D,,/2z/2D,,/2z/2|B,,,/2B,,,/2B,,,/2B,,,/2|[B,,,D,,]/2z/2B,,,/2B,,,/2|
[B,,,D,,]/2B,,,/2B,,,/2z/2|D,,/2D,,/2D,,/2D,,/2|[B,,,D,,]/2B,,,/2B,,,/2z/2|[B,,,D,,]/2B,,,/2B,,,/2z/2|
[B,,,D,,]/2B,,,/2B,,,/2z/2|[B,,,D,,]/2B,,,/2B,,,/2z/2|[B,,,D,,]/2B,,,/2B,,,/2z/2|[B,,,D,,]/2B,,,/2B,,,/2z/2|
[B,,,D,,]/2B,,,/2B,,,/2z/2|D,,/2D,,/2D,,/2D,,/2|[B,,,D,,]/2B,,,/2B,,,/2z/2|[B,,,D,,]/2B,,,/2B,,,/2z/2|
[B,,,D,,]/2B,,,/2B,,,/2z/2|[B,,,D,,]/2B,,,/2B,,,/2z/2|[B,,,D,,]/2B,,,/2B,,,/2z/2|[B,,,D,,]/2B,,,/2B,,,/2z/2|
[B,,,D,,]/2B,,,/2B,,,/2z/2|D,,/2D,,/2D,,/2D,,/2|[B,,,D,,]/2B,,,/2B,,,/2z/2|[B,,,D,,]/2B,,,/2B,,,/2z/2|
[B,,,D,,]/2B,,,/2B,,,/2z/2|[B,,,D,,]/2B,,,/2B,,,/2z/2|[B,,,D,,]/2B,,,/2B,,,/2z/2|[B,,,D,,]/2B,,,/2B,,,/2z/2|
[B,,,D,,]/2B,,,/2B,,,/2z/2|D,,/2D,,/2D,,/2D,,/2|[B,,,D,,]/2B,,,/2B,,,/2z/2|[B,,,D,,]/2B,,,/2B,,,/2z/2|
[B,,,D,,]/2B,,,/2B,,,/2z/2|[B,,,D,,]/2B,,,/2B,,,/2z/2|[B,,,D,,]/2B,,,/2B,,,/2z/2|[B,,,D,,]/2B,,,/2B,,,/2z/2|
[B,,,D,,]/2B,,,/2B,,,/2z/2|D,,/2D,,/2D,,/2D,,/2|[B,-B,,,D,,]/2[B,B,,,]/2B,,,/2z/2|[G,-B,,,D,,]/2[G,B,,,]/2B,,,/2z/2|
[B,-B,,,D,,]/2[B,B,,,]/2[B,,,D,,]/2z/2|D,,/2D,,/2D,,/2D,,/2|
L:1/8
M:1/4
K:C clef=G2
V:2
%%MIDI program 72
z2|z2|g^f|ga|
b2|b2|a2|a2|
g2-|g2||bb|ab|
c'2|c'2|b2|b2|
a2-|a2||g^f|ga|
b2|b2|a2|c'2|
b2-|b2|a2-|a2|
|
g2-|g2||^fg|a^f|
g2-|g2||a2-|a2|
|
g2-|g2||^fg|a^f|
g2-|g2||z2|z2|
z2|z2|g2|d2|
g2|d2|z2|z2|
z2|z2|g2|d2|
g2|d2|g2|ab|
e2-|e2||c'2|a2|
g2-|g2||^f2|a2|
g2-|g2||a2-|a2|
|
g2-|g2||^fg|a^f|
g2-|g2||a2-|a2|
g2-|gg|^fg|a2|
g2-|g2||gg|ga|
b2|bb|bb|c'b|
a2-|a2||gg|ga|
bb|c'a|g2|^f2|
g2-|g2||g^f|ga|
b2|b2|a2|a2|
g2-|g2|bb|ab|
c'2|c'2|b2|b2|
a2-|a2||g^f|ga|
b2|b2|a2|c'2|
b2-|b2|a2-|a2|
g2-|g2||^fg|a^f|
g2-|g2||a2-|a2|
g2-|g2||^fg|a^f|
g2-|g2||z2|z2|
z2|z2|g2|d2|
g2|d2|z2|z2|
z2|z2|g2|d2|
g2|d2|g2|ab|
e2-|e2|c'2|a2|
g2-|g2|^f2|a2|
g2-|g2|a2-|a2|
|
g2-|g2|^fg|a^f|
g2-|g2|a2-|a2|
|
g2-|gg|^fg|a2|
g2-|g2|gg|ga|
b2|bb|bb|c'b|
a2-|a2||gg|ga|
bb|c'a|g2|^f2|
g2-|g2||g2|^f2|
gz|z2|z2|z2|
a2-|a2-|ac'|ba|
gz|z2|z2|z2|
a2-|a2-|ac'|ba|
g2|b2|c'b|a2|
g2-|g2|a2|c'2|
b2|b2|c'b|a2|
g2-|g2|^f2|a2|
g2-|g2|
L:1/8
M:1/4
K:C clef=G2
V:3
%%MIDI program 73
z2|z2|G^F|GA|
B2|B2|A2|A2|
G2-|G2||BB|AB|
c2|c2|B2|B2|
A2-|A2||G^F|GA|
B2|B2|A2|c2|
B2-|B2|A2-|A2|
|
G2-|G2||^FG|A^F|
G2-|G2||A2-|A2|
|
G2-|G2||^FG|A^F|
G2-|G2||z2|z2|
z2|z2|G2|D2|
G2|D2|z2|z2|
z2|z2|G2|D2|
G2|D2|G2|AB|
E2-|E2||c2|A2|
G2-|G2||^F2|A2|
G2-|G2||A2-|A2|
|
G2-|G2||^FG|A^F|
G2-|G2||A2-|A2|
G2-|GG|^FG|A2|
G2-|G2||GG|GA|
B2|BB|BB|cB|
A2-|A2||GG|GA|
BB|cA|G2|^F2|
G2-|G2||G^F|GA|
B2|B2|A2|A2|
G2-|G2|BB|AB|
c2|c2|B2|B2|
A2-|A2||G^F|GA|
B2|B2|A2|c2|
B2-|B2|A2-|A2|
G2-|G2||^FG|A^F|
G2-|G2||A2-|A2|
G2-|G2||^FG|A^F|
G2-|G2||z2|z2|
z2|z2|G2|D2|
G2|D2|z2|z2|
z2|z2|G2|D2|
G2|D2|G2|AB|
E2-|E2|c2|A2|
G2-|G2|^F2|A2|
G2-|G2|A2-|A2|
|
G2-|G2|^FG|A^F|
G2-|G2|A2-|A2|
|
G2-|GG|^FG|A2|
G2-|G2|GG|GA|
B2|BB|BB|cB|
A2-|A2||GG|GA|
BB|cA|G2|^F2|
G2-|G2||G2|^F2|
Gz|z2|z2|z2|
A2-|A2-|Ac|BA|
Gz|z2|z2|z2|
A2-|A2-|Ac|BA|
G2|B2|cB|A2|
G2-|G2|A2|c2|
B2|B2|cB|A2|
G2-|G2|^F2|A2|
G2-|G2|
L:1/8
M:1/4
K:C clef=F4
V:4
%%MIDI program 45
z2|z2|[G,,G,][G,,G,]|[G,,G,][B,,B,]|
[B,,B,][A,,A,]|[A,,A,][G,,G,]|[D,,D,][D,,D,]|[D,,D,][D,,D,]|
[G,,G,][G,,G,]|[G,,G,][G,,G,]|[G,,G,][G,,G,]|[G,,G,][B,,B,]|
[B,,B,][A,,A,]|[A,,A,][A,,A,]|[G,,G,][G,,G,]|[E,,E,][E,,E,]|
[D,,D,][D,,D,]|[^F,,^F,][^F,,^F,]|[G,,G,][G,,G,]|[G,,G,][B,,B,]|
[B,,B,][A,,A,]|[A,,A,][G,,G,]|[D,,D,][D,,D,]|[^F,,^F,][^F,,^F,]|
[G,,G,][G,,G,]|[G,,G,][G,,G,]|[A,,A,][A,,A,]|[A,,A,][A,,A,]|
[G,,G,][G,,G,]|[G,,G,][G,,G,]|[D,,D,][D,,D,]|[D,,D,][D,,D,]|
[D,,D,][D,,D,]|[G,,G,][G,,G,]|[A,,A,][A,,A,]|[A,,A,][A,,A,]|
[G,,G,][G,,G,]|[G,,G,][G,,G,]|[D,,D,][D,,D,]|[D,,D,][D,,D,]|
[D,,D,][D,,D,]|[G,,G,][G,,G,]|[G,,G,][G,,G,]|[G,,G,][G,,G,]|
[G,,G,][G,,G,]|[G,,G,][G,,G,]|[G,,G,][G,,G,]|[G,,G,][G,,G,]|
[G,,G,][G,,G,]|[G,,G,][G,,G,]|[G,,G,][G,,G,]|[G,,G,][G,,G,]|
[G,,G,][G,,G,]|[G,,G,][G,,G,]|[G,,G,][G,,G,]|[G,,G,][G,,G,]|
[G,,G,][G,,G,]|[G,,G,][G,,G,]|[G,,G,][G,,G,]|[G,,G,][B,,B,]|
[B,,B,][A,,A,]|[A,,A,][G,,G,]|[A,,A,][A,A,,]|[A,,A,][A,A,,]|
[G,,G,][G,,G,]|[G,,G,][G,,G,]|[D,,D,][D,,D,]|[D,,D,][D,,D,]|
[G,,G,][G,,G,]|[G,,G,][G,,G,]|[A,,A,][A,,A,]|[A,,A,][A,,A,]|
[G,,G,][G,,G,]|[G,,G,][G,,G,]|[D,,D,][D,,D,]|[^F,,^F,][^F,,^F,]|
[G,,G,][G,,G,]|[G,,G,][G,,G,]|[A,,A,][A,,A,]|[A,,A,][A,,A,]|
[G,,G,][G,,G,]|[G,,G,][G,,G,]|[D,,D,][D,,D,]|[^F,,^F,][^F,,^F,]|
[G,,G,][G,,G,]|[G,,G,][G,,G,]|[E,,E,][E,,E,]|[E,,E,][E,,E,]|
[G,,G,][G,,G,]|[G,,G,][G,,G,]|[G,,G,][G,,G,]|[B,,B,][B,,B,]|
[A,,A,][A,,A,]|[D,,D,][D,,D,]|[E,,E,][E,,E,]|[E,,E,][E,,E,]|
[G,,G,][G,,G,]|[A,,A,][A,,A,]|[G,,G,][G,,G,]|[D,,D,][D,,D,]|
[G,,G,][G,,G,]|[G,,G,][G,,G,]|[G,,G,][G,,G,]|[G,,G,][B,,B,]|
[B,,B,][A,,A,]|[A,,A,][G,,G,]|[D,,D,][D,,D,]|[D,,D,][D,,D,]|
[G,,G,][G,,G,]|[G,,G,][G,,G,]|[G,,G,][G,,G,]|[G,,G,][B,,B,]|
[B,,B,][A,,A,]|[A,,A,][A,,A,]|[G,,G,][G,,G,]|[E,,E,][E,,E,]|
[D,,D,][D,,D,]|[^F,,^F,][^F,,^F,]|[G,,G,][G,,G,]|[G,,G,][B,,B,]|
[B,,B,][A,,A,]|[A,,A,][G,,G,]|[D,,D,][D,,D,]|[^F,,^F,][^F,,^F,]|
[G,,G,][G,,G,]|[G,,G,][G,,G,]|[A,,A,][A,,A,]|[A,,A,][A,,A,]|
[G,,G,][G,,G,]|[G,,G,][G,,G,]|[D,,D,][D,,D,]|[D,,D,][D,,D,]|
[D,,D,][D,,D,]|[G,,G,][G,,G,]|[A,,A,][A,,A,]|[A,,A,][A,,A,]|
[G,,G,][G,,G,]|[G,,G,][G,,G,]|[D,,D,][D,,D,]|[D,,D,][D,,D,]|
[D,,D,][D,,D,]|[G,,G,][G,,G,]|[G,,G,][G,,G,]|[G,,G,][G,,G,]|
[G,,G,][G,,G,]|[G,,G,][G,,G,]|[G,,G,][G,,G,]|[G,,G,][G,,G,]|
[G,,G,][G,,G,]|[G,,G,][G,,G,]|[G,,G,][G,,G,]|[G,,G,][G,,G,]|
[G,,G,][G,,G,]|[G,,G,][G,,G,]|[G,,G,][G,,G,]|[G,,G,][G,,G,]|
[G,,G,][G,,G,]|[G,,G,][G,,G,]|[G,,G,][G,,G,]|[G,,G,][B,,B,]|
[B,,B,][A,,A,]|[A,,A,][G,,G,]|[A,,A,][A,A,,]|[A,,A,][A,A,,]|
[G,,G,][G,,G,]|[G,,G,][G,,G,]|[D,,D,][D,,D,]|[D,,D,][D,,D,]|
[G,,G,][G,,G,]|[G,,G,][G,,G,]|[A,,A,][A,,A,]|[A,,A,][A,,A,]|
[G,,G,][G,,G,]|[G,,G,][G,,G,]|[D,,D,][D,,D,]|[^F,,^F,][^F,,^F,]|
[G,,G,][G,,G,]|[G,,G,][G,,G,]|[A,,A,][A,,A,]|[A,,A,][A,,A,]|
[G,,G,][G,,G,]|[G,,G,][G,,G,]|[D,,D,][D,,D,]|[^F,,^F,][^F,,^F,]|
[G,,G,][G,,G,]|[G,,G,][G,,G,]|[E,,E,][E,,E,]|[E,,E,][E,,E,]|
[G,,G,][G,,G,]|[G,,G,][G,,G,]|[G,,G,][G,,G,]|[B,,B,][B,,B,]|
[A,,A,][A,,A,]|[D,,D,][D,,D,]|[E,,E,][E,,E,]|[E,,E,][E,,E,]|
[G,,G,][G,,G,]|[A,,A,][A,,A,]|[G,,G,][G,,G,]|[G,,G,][G,,G,]|
[G,,G,][G,,G,]|z2|z2|z2|
z2|z2|z2|z2|
z2|z2|z2|z2|
z2|z2|z2|z2|
z2|z2|z2|z2|
z2|z2|z2|z2|
z2|z2|z2|z2|
z2|z2|z2|z2|
z2|z2|z2|z2|
z2|z2|
L:1/8
M:1/4
K:C clef=F4
V:5
%%MIDI program 58
z2|z2|z2|z2|
z2|z2|z2|z2|
z2|z2|z2|z2|
z2|z2|z2|z2|
z2|z2|z2|z2|
z2|z2|z2|z2|
z2|z2|z2|z2|
z2|z2|z2|z2|
z2|z2|z2|z2|
z2|z2|z2|z2|
z2|z2|z2|z2|
z2|z2|z2|z2|
z2|z2|z2|z2|
z2|z2|z2|z2|
z2|z2|z2|z2|
z2|z2|z2|z2|
z2|z2|z2|z2|
z2|z2|z2|z2|
z2|z2|z2|z2|
z2|z2|z2|z2|
z2|z2|z2|z2|
z2|z2|z2|z2|
z2|z2|z2|z2|
z2|z2|z2|z2|
z2|z2|z2|z2|
z2|z2|z2|z2|
z2|z2|z2|z2|
z2|z2|z2|z2|
z2|z2|z2|z2|
z2|z2|z2|z2|
z2|z2|z2|z2|
z2|z2|z2|z2|
z2|z2|z2|z2|
z2|z2|z2|z2|
z2|z2|z2|z2|
z2|z2|z2|z2|
z2|z2|z2|z2|
z2|z2|z2|z2|
z2|z2|z2|z2|
z2|z2|z2|z2|
z2|z2|z2|z2|
z2|z2|z2|z2|
z2|z2|z2|z2|
z2|z2|z2|z2|
z2|z2|z2|z2|
z2|z2|z2|z2|
z2|z2|z2|z2|
z2|z2|z2|z2|
z2|z2|z2|z2|
z2|z2|z2|z2|
z2|z2|z2|z2|
z2|z2|z2|z2|
z2|z2|z2|z2|
z2|z2|z2|z2|
z2|z2|z2|z2|
z2|z2|z2|z2|
z2|z2|z2|z2|
z2|z2|z2|z2|
G,,2-|G,,2|^F,,2|A,,2|
G,,2-|G,,2|
L:1/8
M:1/4
K:C clef=F4
V:6
%%MIDI program 69
z2|z2|z2|z2|
z2|z2|z2|z2|
z2|z2|DD|CD|
E2|E2|D2|E2|
^F2-|^F2||DB,|D^F|
G2|G2|^F2|A2|
G2-|G2|E2-|E2|
|
D2-|D2||DE|^FD|
B,2-|B,2||E2-|E2|
|
D2-|D2||DE|^FD|
B,2-|B,2||z2|z2|
z2|z2|D2|B,2|
D2|B,2|z2|z2|
z2|z2|D2|B,2|
D2|B,2|D2|EG|
C2-|C2||A2|E2|
D2-|D2||D2|^F2|
D2-|D2||E2-|E2|
|
D2-|D2||DE|^FD|
B,2-|B,2||E2-|E2|
D2-|DD|DE|^F2|
D2-|D2||EE|E^F|
G2|GG|GG|AG|
^F2-|^F2||EE|E^F|
GG|A^F|D2|D2|
D2-|D2||z2|z2|
z2|z2|z2|z2|
z2|z2|DD|CD|
E2|E2|D2|E2|
^F2-|^F2||DB,|D^F|
G2|G2|^F2|A2|
G2-|G2|E2-|E2|
D2-|D2||DE|^FD|
B,2-|B,2||E2-|E2|
D2-|D2||DE|^FD|
B,2-|B,2||z2|z2|
z2|z2|D2|B,2|
D2|B,2|z2|z2|
z2|z2|D2|B,2|
D2|B,2|D2|EG|
C2-|C2|A2|E2|
D2-|D2|D2|^F2|
D2-|D2|E2-|E2|
|
D2-|D2|DE|^FD|
B,2-|B,2|E2-|E2|
|
D2-|DD|DE|^F2|
D2-|D2|EE|E^F|
G2|GG|GG|AG|
^F2-|^F2||EE|E^F|
GG|A^F|D2|D2|
D2-|D2||D2|D2|
Dz|z2|z2|z2|
D2-|D2-|DA|G^F|
Dz|z2|z2|z2|
D2-|D2-|DA|G^F|
D2|G2|AG|E2|
D2-|D2|^F2|A2|
G2|G2|AG|^F2|
D2-|D2|D2|D2|
D2-|D2|
L:1/8
M:1/4
K:C clef=F4
V:7
%%MIDI program 23
z2|z2|z2|z2|
z2|z2|z2|z2|
z2|z2|z2|z2|
z2|z2|z2|z2|
z2|z2|B,G,|B,D|
D2|D2|D2|^F,2|
G,2-|G,2|C2-|C2|
|
B,2-|B,2||A,B,|DA,|
G,2-|G,2||C2-|C2|
|
B,2-|B,2||A,B,|DA,|
G,2-|G,2||z2|z2|
z2|z2|B,2|G,2|
B,2|G,2|z2|z2|
z2|z2|B,2|G,2|
B,2|G,2|B,2|CD|
A,2-|A,2||E2|C2|
B,2-|B,2||A,2|D2|
B,2-|B,2||C2-|C2|
|
B,2-|B,2||A,C|DA,|
G,2-|G,2||C2-|C2|
B,2-|B,B,|A,C|A,2|
G,2-|G,2||B,B,|B,C|
D2|Dz|zD|ED|
D2-|D2||B,B,|B,C|
DD|EC|B,2|A,2|
B,2-|B,2||z2|z2|
z2|z2|z2|z2|
z2|z2|z2|z2|
z2|z2|z2|z2|
z2|z2|B,G,|B,D|
D2|D2|D2|^F,2|
G,2-|G,2|C2-|C2|
B,2-|B,2||A,B,|DA,|
G,2-|G,2||C2-|C2|
B,2-|B,2||A,B,|DA,|
G,2-|G,2||z2|z2|
z2|z2|B,2|G,2|
B,2|G,2|z2|z2|
z2|z2|B,2|G,2|
B,2|G,2|B,2|CD|
A,2-|A,2|E2|C2|
B,2-|B,2|A,2|D2|
B,2-|B,2|C2-|C2|
|
B,2-|B,2|A,C|DA,|
G,2-|G,2|C2-|C2|
|
B,2-|B,B,|A,C|A,2|
G,2-|G,2|B,B,|B,C|
D2|Dz|zD|ED|
D2-|D2||B,B,|B,C|
DD|EC|B,2|A,2|
B,2-|B,2||B,2|A,2|
B,z|z2|z2|z2|
D2-|D2-|DE|DC|
B,z|z2|z2|z2|
D2-|D2-|DE|DC|
B,2|D2|ED|C2|
B,2-|B,2|D2|^F2|
D2|D2|ED|C2|
B,2-|B,2|A,2|A,2|
B,2-|B,2|
L:1/8
M:1/4
K:C clef=G2
V:8
%%MIDI program 60
z2|z2|z2|z2|
z2|z2|z2|z2|
z2|z2|z2|z2|
z2|z2|z2|z2|
z2|z2|z2|z2|
z2|z2|z2|z2|
z2|z2|z2|z2|
z2|z2|z2|z2|
z2|z2|z2|z2|
z2|z2|z2|z2|
z2|z2|G2|^FE|
D2-|D2-|D2-|D2-|
D2-|D2||G2|^FE|
D2-|D2-|D2-|D2-|
D2-|D2|z2|z2|
z2|z2|z2|z2|
z2|z2|z2|z2|
z2|z2|z2|z2|
z2|z2|z2|z2|
z2|z2|z2|z2|
z2|z2|z2|z2|
z2|z2|z2|z2|
z2|z2|z2|z2|
z2|z2|z2|z2|
z2|z2|z2|z2|
z2|z2|z2|z2|
z2|z2|z2|z2|
z2|z2|z2|z2|
z2|z2|z2|z2|
z2|z2|z2|z2|
z2|z2|z2|z2|
z2|z2|z2|z2|
z2|z2|z2|z2|
z2|z2|z2|z2|
z2|z2|z2|z2|
z2|z2|G2|^FE|
D2-|D2-|D2-|D2-|
D2-|D2||G2|^FE|
D2-|D2-|D2-|D2-|
D2-|D2||z2|z2|
z2|z2|z2|z2|
z2|z2|z2|z2|
z2|z2|z2|z2|
z2|z2|z2|z2|
z2|z2|z2|z2|
z2|z2|z2|z2|
z2|z2|z2|z2|
z2|z2|z2|z2|
z2|z2|z2|z2|
z2|z2|z2|z2|
z2|z2|G2|^F2|
GG|GB|d2|B2|
A2-|A2-|Ac|BA|
GG|GB|dB|dB|
A2-|A2-|Ac|BA|
G2|B2|cB|A2|
G2-|G2|A2|c2|
B2|B2|cB|A2|
G2-|G2|^F2|A2|
G2-|G2|
L:1/8
M:1/4
K:C clef=F4
V:9
%%MIDI program 48
B,,,/2[B,,,D,,]/2[B,,,D,,]/2z/2|z2|[B,,,D,,]/2B,,,/2B,,,/2z/2|[B,,,D,,]/2B,,,/2B,,,/2z/2|
[B,,,D,,]/2B,,,/2B,,,/2z/2|[B,,,D,,]/2B,,,/2B,,,/2z/2|[B,,,D,,]/2B,,,/2B,,,/2z/2|[B,,,D,,]/2B,,,/2[B,,,D,,]/2z/2|
[B,,,D,,]/2B,,,/2B,,,/2z/2|[B,,,D,,]/2[D,,B,,,]/2[B,,,D,,]/2D,,/2|[B,,,D,,]/2B,,,/2B,,,/2z/2|[B,,,D,,]/2B,,,/2B,,,/2z/2|
[B,,,D,,]/2B,,,/2B,,,/2z/2|[B,,,D,,]/2B,,,/2B,,,/2z/2|[B,,,D,,]/2B,,,/2B,,,/2z/2|[B,,,D,,]/2B,,,/2[B,,,D,,]/2z/2|
[B,,,D,,]/2B,,,/2B,,,/2z/2|[B,,,D,,]/2[D,,B,,,]/2[B,,,D,,]/2D,,/2|[B,,,D,,]/2B,,,/2B,,,/2z/2|[B,,,D,,]/2B,,,/2B,,,/2z/2|
[B,,,D,,]/2B,,,/2B,,,/2z/2|[B,,,D,,]/2B,,,/2B,,,/2z/2|[B,,,D,,]/2B,,,/2B,,,/2z/2|[B,,,D,,]/2B,,,/2[B,,,D,,]/2z/2|
[B,,,D,,]/2B,,,/2B,,,/2z/2|[B,,,D,,]/2[D,,B,,,]/2[B,,,D,,]/2D,,/2|[B,,,D,,B,]/2B,,,/2[B,,,D,,]/2z/2|[D,,B,,,]/2[D,,B,,,]/2[D,,B,,,]/2D,,/2|
[D,,-A,-B,,,]/2[D,,A,B,,,]/2B,,,/2z/2|[B,,,D,,]/2B,,,/2[B,,,D,,]/2z/2|[B,,,D,,]/2B,,,/2B,,,/2z/2|[B,,,D,,]/2B,,,/2B,,,/2z/2|
[B,,,D,,]/2B,,,/2B,,,/2z/2|[B,,,D,,]/2B,,,/2B,,,/2z/2|[B,,,D,,B,]/2B,,,/2[B,,,D,,]/2z/2|[D,,B,,,]/2[D,,B,,,]/2[D,,B,,,]/2D,,/2|
[D,,-A,-B,,,]/2[D,,A,B,,,]/2B,,,/2z/2|[B,,,D,,]/2B,,,/2[B,,,D,,]/2z/2|[B,,,D,,]/2B,,,/2B,,,/2z/2|[B,,,D,,]/2B,,,/2B,,,/2z/2|
[B,,,D,,]/2B,,,/2B,,,/2z/2|[B,,,D,,]/2[B,,,D,,]/2[B,,,D,,]/2D,,/2|D,,/2z/2D,,/2z/2|D,,/2z/2D,,/2z/2|
D,,/2z/2D,,/2z/2|D,,/2z/2D,,/2z/2|[B,-B,,,]/2[B,B,,,]/2B,,,/2z/2|[G,-B,,,]/2[G,B,,,]/2B,,,/2z/2|
[B,-B,,,]/2[B,B,,,]/2B,,,/2z/2|[G,-B,,,]/2[G,B,,,]/2B,,,/2z/2|D,,/2z/2D,,/2z/2|D,,/2z/2D,,/2z/2|
D,,/2z/2D,,/2z/2|D,,/2z/2D,,/2z/2|[B,-B,,,]/2[B,B,,,]/2B,,,/2z/2|[G,-B,,,]/2[G,B,,,]/2B,,,/2z/2|
[B,-B,,,]/2[B,B,,,]/2B,,,/2z/2|[G,-B,,,]/2[G,B,,,]/2B,,,/2z/2|[B,,,D,,]/2B,,,/2B,,,/2z/2|[B,,,D,,]/2B,,,/2B,,,/2z/2|
[B,,,D,,]/2B,,,/2B,,,/2z/2|[B,,,D,,]/2B,,,/2B,,,/2z/2|[B,,,D,,]/2B,,,/2B,,,/2z/2|[B,,,D,,]/2B,,,/2[B,,,D,,]/2z/2|
[B,,,D,,]/2B,,,/2B,,,/2z/2|[B,,,D,,]/2[D,,B,,,]/2[B,,,D,,]/2D,,/2|[B,,,D,,]/2B,,,/2B,,,/2z/2|[B,,,D,,]/2B,,,/2B,,,/2z/2|
[B,,,D,,]/2B,,,/2B,,,/2z/2|[B,,,D,,]/2B,,,/2B,,,/2z/2|[B,,,D,,B,]/2B,,,/2[B,,,D,,]/2z/2|[D,,B,,,]/2[D,,B,,,]/2[D,,B,,,]/2D,,/2|
[D,,-A,-B,,,]/2[D,,A,B,,,]/2B,,,/2z/2|[B,,,D,,]/2B,,,/2[B,,,D,,]/2z/2|[B,,,D,,]/2B,,,/2B,,,/2z/2|[B,,,D,,]/2B,,,/2B,,,/2z/2|
[B,,,D,,]/2B,,,/2B,,,/2z/2|[B,,,D,,]/2B,,,/2B,,,/2z/2|[B,,,D,,B,]/2B,,,/2[B,,,D,,]/2z/2|[D,,B,,,]/2[D,,B,,,]/2[D,,B,,,]/2D,,/2|
[D,,-A,-B,,,]/2[D,,A,B,,,]/2B,,,/2z/2|[B,,,D,,]/2B,,,/2[B,,,D,,]/2z/2|[B,,,D,,]/2B,,,/2B,,,/2z/2|[B,,,D,,]/2B,,,/2B,,,/2z/2|
[B,,,D,,]/2B,,,/2B,,,/2z/2|[B,,,D,,]/2[B,,,D,,]/2[B,,,D,,]/2D,,/2|B,,,/2B,,,/2B,,,/2B,,,/2|[B,,,D,,B,,,]/2z/2D,,/2z/2|
B,,,/2B,,,/2B,,,/2z/2|D,,/2z/2D,,/2z/2|B,,,/2B,,,/2B,,,/2B,,,/2|[B,,,D,,]/2z/2B,,,/2B,,,/2|
[B,,,D,,]/2B,,,/2B,,,/2z/2|D,,/2D,,/2D,,/2D,,/2|B,,,/2B,,,/2B,,,/2B,,,/2|[B,,,D,,B,,,]/2z/2D,,/2z/2|
B,,,/2B,,,/2B,,,/2z/2|D,,/2z/2D,,/2z/2|B,,,/2B,,,/2B,,,/2B,,,/2|[B,,,D,,]/2z/2B,,,/2B,,,/2|
[B,,,D,,]/2B,,,/2B,,,/2z/2|D,,/2D,,/2D,,/2D,,/2|[B,,,D,,]/2B,,,/2B,,,/2z/2|[B,,,D,,]/2B,,,/2B,,,/2z/2|
[B,,,D,,]/2B,,,/2B,,,/2z/2|[B,,,D,,]/2B,,,/2B,,,/2z/2|[B,,,D,,]/2B,,,/2B,,,/2z/2|[B,,,D,,]/2B,,,/2[B,,,D,,]/2z/2|
[B,,,D,,]/2B,,,/2B,,,/2z/2|[B,,,D,,]/2[D,,B,,,]/2[B,,,D,,]/2D,,/2|[B,,,D,,]/2B,,,/2B,,,/2z/2|[B,,,D,,]/2B,,,/2B,,,/2z/2|
[B,,,D,,]/2B,,,/2B,,,/2z/2|[B,,,D,,]/2B,,,/2B,,,/2z/2|[B,,,D,,]/2B,,,/2B,,,/2z/2|[B,,,D,,]/2B,,,/2[B,,,D,,]/2z/2|
[B,,,D,,]/2B,,,/2B,,,/2z/2|[B,,,D,,]/2[D,,B,,,]/2[B,,,D,,]/2D,,/2|[B,,,D,,]/2B,,,/2B,,,/2z/2|[B,,,D,,]/2B,,,/2B,,,/2z/2|
[B,,,D,,]/2B,,,/2B,,,/2z/2|[B,,,D,,]/2B,,,/2B,,,/2z/2|[B,,,D,,]/2B,,,/2B,,,/2z/2|[B,,,D,,]/2B,,,/2[B,,,D,,]/2z/2|
[B,,,D,,]/2B,,,/2B,,,/2z/2|[B,,,D,,]/2[D,,B,,,]/2[B,,,D,,]/2D,,/2|[B,,,D,,B,]/2B,,,/2[B,,,D,,]/2z/2|[D,,B,,,]/2[D,,B,,,]/2[D,,B,,,]/2D,,/2|
[D,,-A,-B,,,]/2[D,,A,B,,,]/2B,,,/2z/2|[B,,,D,,]/2B,,,/2[B,,,D,,]/2z/2|[B,,,D,,]/2B,,,/2B,,,/2z/2|[B,,,D,,]/2B,,,/2B,,,/2z/2|
[B,,,D,,]/2B,,,/2B,,,/2z/2|[B,,,D,,]/2B,,,/2B,,,/2z/2|[B,,,D,,B,]/2B,,,/2[B,,,D,,]/2z/2|[D,,B,,,]/2[D,,B,,,]/2[D,,B,,,]/2D,,/2|
[D,,-A,-B,,,]/2[D,,A,B,,,]/2B,,,/2z/2|[B,,,D,,]/2B,,,/2[B,,,D,,]/2z/2|[B,,,D,,]/2B,,,/2B,,,/2z/2|[B,,,D,,]/2B,,,/2B,,,/2z/2|
[B,,,D,,]/2B,,,/2B,,,/2z/2|[B,,,D,,]/2[B,,,D,,]/2[B,,,D,,]/2D,,/2|D,,/2z/2D,,/2z/2|D,,/2z/2D,,/2z/2|
D,,/2z/2D,,/2z/2|D,,/2z/2D,,/2z/2|[B,-B,,,]/2[B,B,,,]/2B,,,/2z/2|[G,-B,,,]/2[G,B,,,]/2B,,,/2z/2|
[B,-B,,,]/2[B,B,,,]/2B,,,/2z/2|[G,-B,,,]/2[G,B,,,]/2B,,,/2z/2|D,,/2z/2D,,/2z/2|D,,/2z/2D,,/2z/2|
D,,/2z/2D,,/2z/2|D,,/2z/2D,,/2z/2|[B,-B,,,]/2[B,B,,,]/2B,,,/2z/2|[G,-B,,,]/2[G,B,,,]/2B,,,/2z/2|
[B,-B,,,]/2[B,B,,,]/2B,,,/2z/2|[G,-B,,,]/2[G,B,,,]/2B,,,/2z/2|[B,,,D,,]/2B,,,/2B,,,/2z/2|[B,,,D,,]/2B,,,/2B,,,/2z/2|
[B,,,D,,]/2B,,,/2B,,,/2z/2|[B,,,D,,]/2B,,,/2B,,,/2z/2|[B,,,D,,]/2B,,,/2B,,,/2z/2|[B,,,D,,]/2B,,,/2[B,,,D,,]/2z/2|
[B,,,D,,]/2B,,,/2B,,,/2z/2|[B,,,D,,]/2[D,,B,,,]/2[B,,,D,,]/2D,,/2|[B,,,D,,]/2B,,,/2B,,,/2z/2|[B,,,D,,]/2B,,,/2B,,,/2z/2|
[B,,,D,,]/2B,,,/2B,,,/2z/2|[B,,,D,,]/2B,,,/2B,,,/2z/2|[B,,,D,,B,]/2B,,,/2[B,,,D,,]/2z/2|[D,,B,,,]/2[D,,B,,,]/2[D,,B,,,]/2D,,/2|
[D,,-A,-B,,,]/2[D,,A,B,,,]/2B,,,/2z/2|[B,,,D,,]/2B,,,/2[B,,,D,,]/2z/2|[B,,,D,,]/2B,,,/2B,,,/2z/2|[B,,,D,,]/2B,,,/2B,,,/2z/2|
[B,,,D,,]/2B,,,/2B,,,/2z/2|[B,,,D,,]/2B,,,/2B,,,/2z/2|[B,,,D,,B,]/2B,,,/2[B,,,D,,]/2z/2|[D,,B,,,]/2[D,,B,,,]/2[D,,B,,,]/2D,,/2|
[D,,-A,-B,,,]/2[D,,A,B,,,]/2B,,,/2z/2|[B,,,D,,]/2B,,,/2[B,,,D,,]/2z/2|[B,,,D,,]/2B,,,/2B,,,/2z/2|[B,,,D,,]/2B,,,/2B,,,/2z/2|
[B,,,D,,]/2B,,,/2B,,,/2z/2|[B,,,D,,]/2[B,,,D,,]/2[B,,,D,,]/2D,,/2|B,,,/2B,,,/2B,,,/2B,,,/2|[B,,,D,,B,,,]/2z/2D,,/2z/2|
B,,,/2B,,,/2B,,,/2z/2|D,,/2z/2D,,/2z/2|B,,,/2B,,,/2B,,,/2B,,,/2|[B,,,D,,]/2z/2B,,,/2B,,,/2|
[B,,,D,,]/2B,,,/2B,,,/2z/2|D,,/2D,,/2D,,/2D,,/2|B,,,/2B,,,/2B,,,/2B,,,/2|[B,,,D,,B,,,]/2z/2D,,/2z/2|
B,,,/2B,,,/2B,,,/2z/2|D,,/2z/2D,,/2z/2|B,,,/2B,,,/2B,,,/2B,,,/2|[B,,,D,,]/2z/2B,,,/2B,,,/2|
[B,,,D,,]/2B,,,/2B,,,/2z/2|D,,/2D,,/2D,,/2D,,/2|[B,,,D,,]/2B,,,/2B,,,/2z/2|[B,,,D,,]/2B,,,/2B,,,/2z/2|
[B,,,D,,]/2B,,,/2B,,,/2z/2|[B,,,D,,]/2B,,,/2B,,,/2z/2|[B,,,D,,]/2B,,,/2B,,,/2z/2|[B,,,D,,]/2B,,,/2B,,,/2z/2|
[B,,,D,,]/2B,,,/2B,,,/2z/2|D,,/2D,,/2D,,/2D,,/2|[B,,,D,,]/2B,,,/2B,,,/2z/2|[B,,,D,,]/2B,,,/2B,,,/2z/2|
[B,,,D,,]/2B,,,/2B,,,/2z/2|[B,,,D,,]/2B,,,/2B,,,/2z/2|[B,,,D,,]/2B,,,/2B,,,/2z/2|[B,,,D,,]/2B,,,/2B,,,/2z/2|
[B,,,D,,]/2B,,,/2B,,,/2z/2|D,,/2D,,/2D,,/2D,,/2|[B,,,D,,]/2B,,,/2B,,,/2z/2|[B,,,D,,]/2B,,,/2B,,,/2z/2|
[B,,,D,,]/2B,,,/2B,,,/2z/2|[B,,,D,,]/2B,,,/2B,,,/2z/2|[B,,,D,,]/2B,,,/2B,,,/2z/2|[B,,,D,,]/2B,,,/2B,,,/2z/2|
[B,,,D,,]/2B,,,/2B,,,/2z/2|D,,/2D,,/2D,,/2D,,/2|[B,,,D,,]/2B,,,/2B,,,/2z/2|[B,,,D,,]/2B,,,/2B,,,/2z/2|
[B,,,D,,]/2B,,,/2B,,,/2z/2|[B,,,D,,]/2B,,,/2B,,,/2z/2|[B,,,D,,]/2B,,,/2B,,,/2z/2|[B,,,D,,]/2B,,,/2B,,,/2z/2|
[B,,,D,,]/2B,,,/2B,,,/2z/2|D,,/2D,,/2D,,/2D,,/2|[B,-B,,,D,,]/2[B,B,,,]/2B,,,/2z/2|[G,-B,,,D,,]/2[G,B,,,]/2B,,,/2z/2|
[B,-B,,,D,,]/2[B,B,,,]/2[B,,,D,,]/2z/2|D,,/2D,,/2D,,/2D,,/2|
L:1/8
M:1/4
K:C clef=G2
V:10
%%MIDI program 72
z2|z2|g^f|ga|
b2|b2|a2|a2|
g2-|g2||bb|ab|
c'2|c'2|b2|b2|
a2-|a2||g^f|ga|
b2|b2|a2|c'2|
b2-|b2|a2-|a2|
|
g2-|g2||^fg|a^f|
g2-|g2||a2-|a2|
|
g2-|g2||^fg|a^f|
g2-|g2||z2|z2|
z2|z2|g2|d2|
g2|d2|z2|z2|
z2|z2|g2|d2|
g2|d2|g2|ab|
e2-|e2||c'2|a2|
g2-|g2||^f2|a2|
g2-|g2||a2-|a2|
|
g2-|g2||^fg|a^f|
g2-|g2||a2-|a2|
g2-|gg|^fg|a2|
g2-|g2||gg|ga|
b2|bb|bb|c'b|
a2-|a2||gg|ga|
bb|c'a|g2|^f2|
g2-|g2||g^f|ga|
b2|b2|a2|a2|
g2-|g2|bb|ab|
c'2|c'2|b2|b2|
a2-|a2||g^f|ga|
b2|b2|a2|c'2|
b2-|b2|a2-|a2|
g2-|g2||^fg|a^f|
g2-|g2||a2-|a2|
g2-|g2||^fg|a^f|
g2-|g2||z2|z2|
z2|z2|g2|d2|
g2|d2|z2|z2|
z2|z2|g2|d2|
g2|d2|g2|ab|
e2-|e2|c'2|a2|
g2-|g2|^f2|a2|
g2-|g2|a2-|a2|
|
g2-|g2|^fg|a^f|
g2-|g2|a2-|a2|
|
g2-|gg|^fg|a2|
g2-|g2|gg|ga|
b2|bb|bb|c'b|
a2-|a2||gg|ga|
bb|c'a|g2|^f2|
g2-|g2||g2|^f2|
gz|z2|z2|z2|
a2-|a2-|ac'|ba|
gz|z2|z2|z2|
a2-|a2-|ac'|ba|
g2|b2|c'b|a2|
g2-|g2|a2|c'2|
b2|b2|c'b|a2|
g2-|g2|^f2|a2|
g2-|g2|
L:1/8
M:1/4
K:C clef=G2
V:11
%%MIDI program 73
z2|z2|G^F|GA|
B2|B2|A2|A2|
G2-|G2||BB|AB|
c2|c2|B2|B2|
A2-|A2||G^F|GA|
B2|B2|A2|c2|
B2-|B2|A2-|A2|
|
G2-|G2||^FG|A^F|
G2-|G2||A2-|A2|
|
G2-|G2||^FG|A^F|
G2-|G2||z2|z2|
z2|z2|G2|D2|
G2|D2|z2|z2|
z2|z2|G2|D2|
G2|D2|G2|AB|
E2-|E2||c2|A2|
G2-|G2||^F2|A2|
G2-|G2||A2-|A2|
|
G2-|G2||^FG|A^F|
G2-|G2||A2-|A2|
G2-|GG|^FG|A2|
G2-|G2||GG|GA|
B2|BB|BB|cB|
A2-|A2||GG|GA|
BB|cA|G2|^F2|
G2-|G2||G^F|GA|
B2|B2|A2|A2|
G2-|G2|BB|AB|
c2|c2|B2|B2|
A2-|A2||G^F|GA|
B2|B2|A2|c2|
B2-|B2|A2-|A2|
G2-|G2||^FG|A^F|
G2-|G2||A2-|A2|
G2-|G2||^FG|A^F|
G2-|G2||z2|z2|
z2|z2|G2|D2|
G2|D2|z2|z2|
z2|z2|G2|D2|
G2|D2|G2|AB|
E2-|E2|c2|A2|
G2-|G2|^F2|A2|
G2-|G2|A2-|A2|
|
G2-|G2|^FG|A^F|
G2-|G2|A2-|A2|
|
G2-|GG|^FG|A2|
G2-|G2|GG|GA|
B2|BB|BB|cB|
A2-|A2||GG|GA|
BB|cA|G2|^F2|
G2-|G2||G2|^F2|
Gz|z2|z2|z2|
A2-|A2-|Ac|BA|
Gz|z2|z2|z2|
A2-|A2-|Ac|BA|
G2|B2|cB|A2|
G2-|G2|A2|c2|
B2|B2|cB|A2|
G2-|G2|^F2|A2|
G2-|G2|
L:1/8
M:1/4
K:C clef=F4
V:12
%%MIDI program 45
z2|z2|[G,,G,][G,,G,]|[G,,G,][B,,B,]|
[B,,B,][A,,A,]|[A,,A,][G,,G,]|[D,,D,][D,,D,]|[D,,D,][D,,D,]|
[G,,G,][G,,G,]|[G,,G,][G,,G,]|[G,,G,][G,,G,]|[G,,G,][B,,B,]|
[B,,B,][A,,A,]|[A,,A,][A,,A,]|[G,,G,][G,,G,]|[E,,E,][E,,E,]|
[D,,D,][D,,D,]|[^F,,^F,][^F,,^F,]|[G,,G,][G,,G,]|[G,,G,][B,,B,]|
[B,,B,][A,,A,]|[A,,A,][G,,G,]|[D,,D,][D,,D,]|[^F,,^F,][^F,,^F,]|
[G,,G,][G,,G,]|[G,,G,][G,,G,]|[A,,A,][A,,A,]|[A,,A,][A,,A,]|
[G,,G,][G,,G,]|[G,,G,][G,,G,]|[D,,D,][D,,D,]|[D,,D,][D,,D,]|
[D,,D,][D,,D,]|[G,,G,][G,,G,]|[A,,A,][A,,A,]|[A,,A,][A,,A,]|
[G,,G,][G,,G,]|[G,,G,][G,,G,]|[D,,D,][D,,D,]|[D,,D,][D,,D,]|
[D,,D,][D,,D,]|[G,,G,][G,,G,]|[G,,G,][G,,G,]|[G,,G,][G,,G,]|
[G,,G,][G,,G,]|[G,,G,][G,,G,]|[G,,G,][G,,G,]|[G,,G,][G,,G,]|
[G,,G,][G,,G,]|[G,,G,][G,,G,]|[G,,G,][G,,G,]|[G,,G,][G,,G,]|
[G,,G,][G,,G,]|[G,,G,][G,,G,]|[G,,G,][G,,G,]|[G,,G,][G,,G,]|
[G,,G,][G,,G,]|[G,,G,][G,,G,]|[G,,G,][G,,G,]|[G,,G,][B,,B,]|
[B,,B,][A,,A,]|[A,,A,][G,,G,]|[A,,A,][A,A,,]|[A,,A,][A,A,,]|
[G,,G,][G,,G,]|[G,,G,][G,,G,]|[D,,D,][D,,D,]|[D,,D,][D,,D,]|
[G,,G,][G,,G,]|[G,,G,][G,,G,]|[A,,A,][A,,A,]|[A,,A,][A,,A,]|
[G,,G,][G,,G,]|[G,,G,][G,,G,]|[D,,D,][D,,D,]|[^F,,^F,][^F,,^F,]|
[G,,G,][G,,G,]|[G,,G,][G,,G,]|[A,,A,][A,,A,]|[A,,A,][A,,A,]|
[G,,G,][G,,G,]|[G,,G,][G,,G,]|[D,,D,][D,,D,]|[^F,,^F,][^F,,^F,]|
[G,,G,][G,,G,]|[G,,G,][G,,G,]|[E,,E,][E,,E,]|[E,,E,][E,,E,]|
[G,,G,][G,,G,]|[G,,G,][G,,G,]|[G,,G,][G,,G,]|[B,,B,][B,,B,]|
[A,,A,][A,,A,]|[D,,D,][D,,D,]|[E,,E,][E,,E,]|[E,,E,][E,,E,]|
[G,,G,][G,,G,]|[A,,A,][A,,A,]|[G,,G,][G,,G,]|[D,,D,][D,,D,]|
[G,,G,][G,,G,]|[G,,G,][G,,G,]|[G,,G,][G,,G,]|[G,,G,][B,,B,]|
[B,,B,][A,,A,]|[A,,A,][G,,G,]|[D,,D,][D,,D,]|[D,,D,][D,,D,]|
[G,,G,][G,,G,]|[G,,G,][G,,G,]|[G,,G,][G,,G,]|[G,,G,][B,,B,]|
[B,,B,][A,,A,]|[A,,A,][A,,A,]|[G,,G,][G,,G,]|[E,,E,][E,,E,]|
[D,,D,][D,,D,]|[^F,,^F,][^F,,^F,]|[G,,G,][G,,G,]|[G,,G,][B,,B,]|
[B,,B,][A,,A,]|[A,,A,][G,,G,]|[D,,D,][D,,D,]|[^F,,^F,][^F,,^F,]|
[G,,G,][G,,G,]|[G,,G,][G,,G,]|[A,,A,][A,,A,]|[A,,A,][A,,A,]|
[G,,G,][G,,G,]|[G,,G,][G,,G,]|[D,,D,][D,,D,]|[D,,D,][D,,D,]|
[D,,D,][D,,D,]|[G,,G,][G,,G,]|[A,,A,][A,,A,]|[A,,A,][A,,A,]|
[G,,G,][G,,G,]|[G,,G,][G,,G,]|[D,,D,][D,,D,]|[D,,D,][D,,D,]|
[D,,D,][D,,D,]|[G,,G,][G,,G,]|[G,,G,][G,,G,]|[G,,G,][G,,G,]|
[G,,G,][G,,G,]|[G,,G,][G,,G,]|[G,,G,][G,,G,]|[G,,G,][G,,G,]|
[G,,G,][G,,G,]|[G,,G,][G,,G,]|[G,,G,][G,,G,]|[G,,G,][G,,G,]|
[G,,G,][G,,G,]|[G,,G,][G,,G,]|[G,,G,][G,,G,]|[G,,G,][G,,G,]|
[G,,G,][G,,G,]|[G,,G,][G,,G,]|[G,,G,][G,,G,]|[G,,G,][B,,B,]|
[B,,B,][A,,A,]|[A,,A,][G,,G,]|[A,,A,][A,A,,]|[A,,A,][A,A,,]|
[G,,G,][G,,G,]|[G,,G,][G,,G,]|[D,,D,][D,,D,]|[D,,D,][D,,D,]|
[G,,G,][G,,G,]|[G,,G,][G,,G,]|[A,,A,][A,,A,]|[A,,A,][A,,A,]|
[G,,G,][G,,G,]|[G,,G,][G,,G,]|[D,,D,][D,,D,]|[^F,,^F,][^F,,^F,]|
[G,,G,][G,,G,]|[G,,G,][G,,G,]|[A,,A,][A,,A,]|[A,,A,][A,,A,]|
[G,,G,][G,,G,]|[G,,G,][G,,G,]|[D,,D,][D,,D,]|[^F,,^F,][^F,,^F,]|
[G,,G,][G,,G,]|[G,,G,][G,,G,]|[E,,E,][E,,E,]|[E,,E,][E,,E,]|
[G,,G,][G,,G,]|[G,,G,][G,,G,]|[G,,G,][G,,G,]|[B,,B,][B,,B,]|
[A,,A,][A,,A,]|[D,,D,][D,,D,]|[E,,E,][E,,E,]|[E,,E,][E,,E,]|
[G,,G,][G,,G,]|[A,,A,][A,,A,]|[G,,G,][G,,G,]|[G,,G,][G,,G,]|
[G,,G,][G,,G,]|z2|z2|z2|
z2|z2|z2|z2|
z2|z2|z2|z2|
z2|z2|z2|z2|
z2|z2|z2|z2|
z2|z2|z2|z2|
z2|z2|z2|z2|
z2|z2|z2|z2|
z2|z2|z2|z2|
z2|z2|
L:1/8
M:1/4
K:C clef=F4
V:13
%%MIDI program 58
z2|z2|z2|z2|
z2|z2|z2|z2|
z2|z2|z2|z2|
z2|z2|z2|z2|
z2|z2|z2|z2|
z2|z2|z2|z2|
z2|z2|z2|z2|
z2|z2|z2|z2|
z2|z2|z2|z2|
z2|z2|z2|z2|
z2|z2|z2|z2|
z2|z2|z2|z2|
z2|z2|z2|z2|
z2|z2|z2|z2|
z2|z2|z2|z2|
z2|z2|z2|z2|
z2|z2|z2|z2|
z2|z2|z2|z2|
z2|z2|z2|z2|
z2|z2|z2|z2|
z2|z2|z2|z2|
z2|z2|z2|z2|
z2|z2|z2|z2|
z2|z2|z2|z2|
z2|z2|z2|z2|
z2|z2|z2|z2|
z2|z2|z2|z2|
z2|z2|z2|z2|
z2|z2|z2|z2|
z2|z2|z2|z2|
z2|z2|z2|z2|
z2|z2|z2|z2|
z2|z2|z2|z2|
z2|z2|z2|z2|
z2|z2|z2|z2|
z2|z2|z2|z2|
z2|z2|z2|z2|
z2|z2|z2|z2|
z2|z2|z2|z2|
z2|z2|z2|z2|
z2|z2|z2|z2|
z2|z2|z2|z2|
z2|z2|z2|z2|
z2|z2|z2|z2|
z2|z2|z2|z2|
z2|z2|z2|z2|
z2|z2|z2|z2|
z2|z2|z2|z2|
z2|z2|z2|z2|
z2|z2|z2|z2|
z2|z2|z2|z2|
z2|z2|z2|z2|
z2|z2|z2|z2|
z2|z2|z2|z2|
z2|z2|z2|z2|
z2|z2|z2|z2|
z2|z2|z2|z2|
z2|z2|z2|z2|
G,,2-|G,,2|^F,,2|A,,2|
G,,2-|G,,2|
L:1/8
M:1/4
K:C clef=F4
V:14
%%MIDI program 69
z2|z2|z2|z2|
z2|z2|z2|z2|
z2|z2|DD|CD|
E2|E2|D2|E2|
^F2-|^F2||DB,|D^F|
G2|G2|^F2|A2|
G2-|G2|E2-|E2|
|
D2-|D2||DE|^FD|
B,2-|B,2||E2-|E2|
|
D2-|D2||DE|^FD|
B,2-|B,2||z2|z2|
z2|z2|D2|B,2|
D2|B,2|z2|z2|
z2|z2|D2|B,2|
D2|B,2|D2|EG|
C2-|C2||A2|E2|
D2-|D2||D2|^F2|
D2-|D2||E2-|E2|
|
D2-|D2||DE|^FD|
B,2-|B,2||E2-|E2|
D2-|DD|DE|^F2|
D2-|D2||EE|E^F|
G2|GG|GG|AG|
^F2-|^F2||EE|E^F|
GG|A^F|D2|D2|
D2-|D2||z2|z2|
z2|z2|z2|z2|
z2|z2|DD|CD|
E2|E2|D2|E2|
^F2-|^F2||DB,|D^F|
G2|G2|^F2|A2|
G2-|G2|E2-|E2|
D2-|D2||DE|^FD|
B,2-|B,2||E2-|E2|
D2-|D2||DE|^FD|
B,2-|B,2||z2|z2|
z2|z2|D2|B,2|
D2|B,2|z2|z2|
z2|z2|D2|B,2|
D2|B,2|D2|EG|
C2-|C2|A2|E2|
D2-|D2|D2|^F2|
D2-|D2|E2-|E2|
|
D2-|D2|DE|^FD|
B,2-|B,2|E2-|E2|
|
D2-|DD|DE|^F2|
D2-|D2|EE|E^F|
G2|GG|GG|AG|
^F2-|^F2||EE|E^F|
GG|A^F|D2|D2|
D2-|D2||D2|D2|
Dz|z2|z2|z2|
D2-|D2-|DA|G^F|
Dz|z2|z2|z2|
D2-|D2-|DA|G^F|
D2|G2|AG|E2|
D2-|D2|^F2|A2|
G2|G2|AG|^F2|
D2-|D2|D2|D2|
D2-|D2|
L:1/8
M:1/4
K:C clef=G2
V:15
%%MIDI program 60
z2|z2|z2|z2|
z2|z2|z2|z2|
z2|z2|z2|z2|
z2|z2|z2|z2|
z2|z2|z2|z2|
z2|z2|z2|z2|
z2|z2|z2|z2|
z2|z2|z2|z2|
z2|z2|z2|z2|
z2|z2|z2|z2|
z2|z2|G2|^FE|
D2-|D2-|D2-|D2-|
D2-|D2||G2|^FE|
D2-|D2-|D2-|D2-|
D2-|D2|z2|z2|
z2|z2|z2|z2|
z2|z2|z2|z2|
z2|z2|z2|z2|
z2|z2|z2|z2|
z2|z2|z2|z2|
z2|z2|z2|z2|
z2|z2|z2|z2|
z2|z2|z2|z2|
z2|z2|z2|z2|
z2|z2|z2|z2|
z2|z2|z2|z2|
z2|z2|z2|z2|
z2|z2|z2|z2|
z2|z2|z2|z2|
z2|z2|z2|z2|
z2|z2|z2|z2|
z2|z2|z2|z2|
z2|z2|z2|z2|
z2|z2|z2|z2|
z2|z2|z2|z2|
z2|z2|G2|^FE|
D2-|D2-|D2-|D2-|
D2-|D2||G2|^FE|
D2-|D2-|D2-|D2-|
D2-|D2||z2|z2|
z2|z2|z2|z2|
z2|z2|z2|z2|
z2|z2|z2|z2|
z2|z2|z2|z2|
z2|z2|z2|z2|
z2|z2|z2|z2|
z2|z2|z2|z2|
z2|z2|z2|z2|
z2|z2|z2|z2|
z2|z2|z2|z2|
z2|z2|G2|^F2|
GG|GB|d2|B2|
A2-|A2-|Ac|BA|
GG|GB|dB|dB|
A2-|A2-|Ac|BA|
G2|B2|cB|A2|
G2-|G2|A2|c2|
B2|B2|cB|A2|
G2-|G2|^F2|A2|
G2-|G2|


